X:0062
M:6/8
L:1/8
Q:3/8=120
K:D
d2e fgf|edc d2A|d2e fgf|edc d3:|
dcd B3 |e2d cBA|dcd B3 |edc d3:|
a2f a2f|efg fed|a2f a2f|edc d3:|

